X:246
T:Orlando's Return
T:Orlando's Revenge
R:polka 32 march
M:4/4
L:1/8
R:
K:G
D2|:GFGA G2 A2|BABc B2 c2|d2G2c2B2|AGFE D2 D2|
|GFGA G2 A2|BABc B2 c2| d2G2 BAGF|1G2 GF G2 D2:|2G2 GF G2 Bc|
|:d3d d2 B2|c2e2A2c2|B2G2c2B2|AGFE D2 d2|
|GFGA G2 A2|BABc B2 c2|d2G2 BAGF|1G2 FG A2c2:|2G2 GF G2 D2|

